symbolic/32x32/apps/borderlands-2.svg

<svg xmlns="http://www.w3.org/2000/svg" width="32" height="32" version="1">
 <circle style="opacity:0.2" cx="-16" cy="17" r="14" transform="scale(-1,1)"/>
 <circle style="fill:#aa3131" cx="-16" cy="16" r="14" transform="scale(-1,1)"/>
 <path style="opacity:0.2" d="M 18.282,6.2422 C 17.121,5.9933 15.908,5.9352 14.722,6.0738 13.002,6.2748 11.337,6.8888 9.892,7.8546 8.463,8.8092 7.289,10.068 6.444,11.551 6.12,12.119 5.843,12.726 5.623,13.354 5.469,13.794 5.328,14.303 5.231,14.766 4.73,17.177 5.048,19.663 6.143,21.874 L 6.231,22.034 15.561,8.743 C 15.849,8.3117 16.144,7.9949 16.475,7.7604 16.555,7.7043 16.75,7.5927 16.837,7.5539 17.236,7.3751 17.658,7.3224 18.132,7.3942 18.346,7.4265 18.619,7.4961 18.85,7.5866 19.297,7.7613 19.638,8.0184 19.894,8.3729 19.949,8.4498 20.063,8.644 20.103,8.7323 20.273,9.1012 20.37,9.5227 20.404,10.041 L 21.911,26.258 22.005,26.21 C 22.535,25.869 23.065,25.456 23.534,25.019 24.743,23.891 25.674,22.504 26.267,20.947 26.487,20.367 26.662,19.703 26.765,19.244 27.205,17.15 27.024,14.986 26.241,12.988 25.922,12.174 25.496,11.381 24.991,10.665 23.623,8.7243 21.686,7.2893 19.437,6.553 19.078,6.4354 18.655,6.322 18.282,6.2422 Z M 17.982,9.171 C 17.15,9.0845 16.617,9.6721 16.162,10.291 L 8.055,24.593 8.196,24.748 C 9.509,26.071 11.133,27.034 12.927,27.554 13.395,27.689 14.057,27.843 14.741,27.924 16.131,28.089 17.526,27.984 18.881,27.611 L 18.981,27.579 19.108,12.317 C 19.035,10.96 19.101,9.5465 17.982,9.171 Z"/>
 <path style="fill:#f7b400" d="M 18.282,5.2419 C 17.121,4.993 15.908,4.9349 14.722,5.0735 13.002,5.2745 11.337,5.8885 9.892,6.8543 8.463,7.8089 7.289,9.0674 6.444,10.551 6.12,11.119 5.843,11.726 5.623,12.354 5.469,12.794 5.328,13.303 5.231,13.766 4.73,16.177 5.048,18.663 6.143,20.874 L 6.231,21.034 15.561,7.7427 C 15.849,7.3114 16.144,6.9946 16.475,6.7601 16.555,6.704 16.75,6.5924 16.837,6.5536 17.236,6.3748 17.658,6.3221 18.132,6.3939 18.346,6.4262 18.619,6.4958 18.85,6.5863 19.297,6.761 19.638,7.0181 19.894,7.3726 19.949,7.4495 20.063,7.6437 20.103,7.732 20.273,8.1009 20.37,8.5224 20.404,9.0402 L 21.911,25.258 22.005,25.21 C 22.535,24.869 23.065,24.456 23.534,24.019 24.743,22.891 25.674,21.504 26.267,19.947 26.487,19.367 26.662,18.703 26.765,18.244 27.205,16.15 27.024,13.986 26.241,11.988 25.922,11.174 25.496,10.381 24.991,9.6649 23.623,7.724 21.686,6.289 19.437,5.5527 19.078,5.4351 18.655,5.3217 18.282,5.2419 Z M 17.982,8.1707 C 17.15,8.0842 16.617,8.6718 16.162,9.2903 L 8.055,23.593 8.196,23.748 C 9.509,25.071 11.133,26.034 12.927,26.554 13.395,26.689 14.057,26.843 14.741,26.924 16.131,27.089 17.526,26.984 18.881,26.611 L 18.981,26.579 19.108,11.317 C 19.035,9.9594 19.101,8.5462 17.982,8.1707 Z"/>
 <path style="opacity:0.1;fill:#ffffff" d="M 16,2 A 14,14 0 0 1 30,16 14,14 0 0 1 29.978,16.586 14,14 0 0 0 16,3 14,14 0 0 0 2.021,16.414 14,14 0 0 1 2,16 14,14 0 0 1 16,2 Z"/>
 <path style="opacity:0.2;fill:#ffffff" d="M 15.615,5.0059 C 16.511,4.9754 17.411,5.0555 18.281,5.2422 18.654,5.322 19.079,5.4351 19.438,5.5527 21.687,6.289 23.623,7.7232 24.99,9.6641 25.495,10.38 25.921,11.174 26.24,11.988 26.809,13.441 27.057,14.98 26.982,16.518 26.93,15.316 26.686,14.125 26.24,12.988 25.921,12.174 25.495,11.38 24.99,10.664 23.623,8.7234 21.687,7.289 19.438,6.5527 19.079,6.4351 18.654,6.322 18.281,6.2422 17.12,5.9933 15.909,5.9356 14.723,6.0742 13.003,6.2752 11.338,6.8897 9.893,7.8555 8.464,8.8101 7.288,10.068 6.443,11.551 6.119,12.119 5.843,12.726 5.623,13.354 5.469,13.794 5.327,14.303 5.23,14.766 5.109,15.349 5.038,15.936 5.012,16.523 4.968,15.606 5.04,14.68 5.23,13.766 5.327,13.303 5.469,12.794 5.623,12.354 5.843,11.726 6.119,11.119 6.443,10.551 7.288,9.0672 8.464,7.8081 9.893,6.8535 11.338,5.8877 13.003,5.2752 14.723,5.0742 15.019,5.0396 15.317,5.016 15.615,5.0059 Z M 17.684,8.168 C 17.779,8.159 17.878,8.1591 17.982,8.1699 19.101,8.5454 19.034,9.9588 19.107,11.316 L 19.1,12.17 C 19.037,10.86 19.061,9.5338 17.982,9.1719 17.15,9.0854 16.617,9.6721 16.162,10.291 L 8.42,23.947 C 8.347,23.878 8.266,23.819 8.195,23.748 L 8.055,23.594 16.162,9.291 C 16.56,8.7498 17.018,8.2309 17.684,8.168 Z"/>
</svg>

<svg xmlns="http://www.w3.org/2000/svg" width="32" height="32" version="1"><circle style="opacity:.2" cx="-16" cy="17" r="14" transform="scale(-1 1)"/><circle style="fill:#aa3131" cx="-16" cy="16" r="14" transform="scale(-1 1)"/><path style="opacity:.2" d="M18.282 6.242a10.978 10.978 0 0 0-3.56-.168 11.021 11.021 0 0 0-8.278 5.477 10.969 10.969 0 0 0-1.213 3.215 10.944 10.944 0 0 0 .912 7.108l.088.16 9.33-13.291c.288-.431.583-.748.914-.983.08-.056.275-.167.362-.206a2.248 2.248 0 0 1 1.295-.16c.214.032.487.102.718.193a2.25 2.25 0 0 1 1.044.786c.055.077.169.271.209.36.17.368.267.79.301 1.308l1.507 16.217.094-.048a10.822 10.822 0 0 0 4.262-5.263c.22-.58.395-1.244.498-1.703a10.94 10.94 0 0 0-.524-6.256 11.073 11.073 0 0 0-1.25-2.323 10.948 10.948 0 0 0-6.709-4.423zm-.3 2.929c-.832-.086-1.365.501-1.82 1.12L8.055 24.593l.141.155a10.95 10.95 0 0 0 4.731 2.806c.468.135 1.13.289 1.814.37 1.39.165 2.785.06 4.14-.313l.1-.032.127-15.262c-.073-1.357-.007-2.77-1.126-3.146z"/><path style="fill:#f7b400" d="M18.282 5.242a10.978 10.978 0 0 0-3.56-.168 11.021 11.021 0 0 0-8.278 5.477 10.969 10.969 0 0 0-1.213 3.215 10.944 10.944 0 0 0 .912 7.108l.088.16 9.33-13.291c.288-.432.583-.748.914-.983.08-.056.275-.168.362-.206a2.248 2.248 0 0 1 1.295-.16c.214.032.487.102.718.192a2.25 2.25 0 0 1 1.044.787c.055.076.169.27.209.359.17.369.267.79.301 1.308l1.507 16.218.094-.048a10.822 10.822 0 0 0 4.262-5.263c.22-.58.395-1.244.498-1.703a10.94 10.94 0 0 0-.524-6.256 11.076 11.076 0 0 0-1.25-2.323 10.947 10.947 0 0 0-6.709-4.423zm-.3 2.929c-.832-.087-1.365.5-1.82 1.12L8.055 23.592l.141.155a10.95 10.95 0 0 0 4.731 2.806c.468.135 1.13.289 1.814.37 1.39.165 2.785.06 4.14-.313l.1-.032.127-15.262c-.073-1.358-.007-2.77-1.126-3.146z"/><path style="opacity:.1;fill:#fff" d="M16 2a14 14 0 0 1 14 14 14 14 0 0 1-.022.586A14 14 0 0 0 16 3 14 14 0 0 0 2.021 16.414 14 14 0 0 1 2 16 14 14 0 0 1 16 2z"/><path style="opacity:.2;fill:#fff" d="M15.615 5.006c.896-.03 1.796.05 2.666.236a10.936 10.936 0 0 1 6.709 4.422c.505.716.931 1.51 1.25 2.324a10.94 10.94 0 0 1 .742 4.53 10.946 10.946 0 0 0-1.992-5.854 10.938 10.938 0 0 0-6.709-4.422 10.966 10.966 0 0 0-3.558-.168c-1.72.201-3.385.816-4.83 1.782a10.967 10.967 0 0 0-4.27 5.498 11.043 11.043 0 0 0-.611 3.169 10.962 10.962 0 0 1 .611-4.169 10.966 10.966 0 0 1 4.27-5.5 11.02 11.02 0 0 1 5.722-1.848zm2.069 3.162c.095-.009.194-.009.298.002 1.119.375 1.052 1.789 1.125 3.146l-.007.854c-.063-1.31-.039-2.636-1.118-2.998-.832-.087-1.365.5-1.82 1.119L8.42 23.947c-.073-.069-.154-.128-.225-.199l-.14-.154 8.107-14.303c.398-.541.856-1.06 1.522-1.123z"/></svg>
